src/Rooms/share.svg

<svg xmlns="http://www.w3.org/2000/svg" width="16" height="16" xmlns:xlink="http://www.w3.org/1999/xlink">
  <use fill="#767676" xlink:href="#a"/>
  <defs>
    <path id="a" fill-rule="evenodd" d="M5.51709 3.00269c-.10498.07666-.23242.11663-.36719.11663-.11914.00068-.23291-.03143-.3291-.08996-.04883-.02985-.09326-.06653-.13135-.10938-.09765-.10968-.14306-.25085-.12597-.39166.01757-.14081.0957-.26929.21777-.35632L7.63232.112c.01612-.009705.0337-.0179448.05176-.0246587L7.7334.0653687l.04443-.0233765.00733-.0046387C7.85352.0126343 7.92676 0 8 0c.07666-.00030518.15186.0137329.22217.0413208l.03613.0200195.00879.0040284.04932.0219726c.01806.0067139.03515.0150147.05127.0246587l2.85062 2.06c.1215.0874.1992.21563.2163.35608.0102.08349-.0015.16717-.0327.24438-.0215.05267-.0523.1023-.0918.14685-.1123.12738-.2818.20099-.4605.20001-.1333.00074-.2622-.04046-.3667-.11663L9.02148 1.94666l-.43212-.31202V10.828c0 .2927-.26465.532-.58936.532s-.58887-.2393-.58887-.5327V1.63403l-.43261.31263-1.46143 1.05603zm7.61381 2.66265h2.2802c.3223-.00146.5855.23627.5889.53199V15.468c0 .2934-.2646.532-.5889.532H.588867C.264648 16 0 15.7614 0 15.468V6.19733c.00341797-.29572.266602-.53345.588867-.53199H3.43945c.32227-.00146.58594.23627.58887.53199 0 .29333-.26465.53271-.58887.53271H1.17822v8.20536H14.8218V6.72937h-1.6909c-.3252 0-.5889-.23871-.5889-.53204.0029-.29572.2661-.53345.5889-.53199z"/>
  </defs>
</svg>

<?xml version="1.0" encoding="UTF-8"?>
<svg width="16px" height="16px" viewBox="0 0 16 16" version="1.1" xmlns="http://www.w3.org/2000/svg" xmlns:xlink="http://www.w3.org/1999/xlink">
    <!-- Generator: Sketch 42 (36781) - http://www.bohemiancoding.com/sketch -->
    <title>a</title>
    <desc>Created with Sketch.</desc>
    <defs></defs>
    <g id="Page-1" stroke="none" stroke-width="1" fill="none" fill-rule="evenodd">
        <g id="a-link" fill-rule="nonzero" fill="#767676">
            <path d="M5.1499,3.11932 C5.03076,3.12 4.91699,3.08789 4.8208,3.02936 C4.77197,2.99951 4.72754,2.96283 4.68945,2.91998 C4.5918,2.8103 4.54639,2.66913 4.56348,2.52832 C4.58105,2.38751 4.65918,2.25903 4.78125,2.172 L7.63232,0.112 C7.64844,0.102295 7.66602,0.0940552 7.68408,0.0873413 L7.7334,0.0653687 L7.77783,0.0419922 C7.85352,0.0126343 7.92676,0 8,0 C8.07666,-0.00030518 8.15186,0.0137329 8.22217,0.0413208 L8.2583,0.0613403 L8.31641,0.0873413 C8.33447,0.0940552 8.35156,0.102356 8.36768,0.112 L11.2183,2.172 C11.3398,2.2594 11.4175,2.38763 11.4346,2.52808 C11.4448,2.61157 11.4331,2.69525 11.4019,2.77246 C11.3804,2.82513 11.3496,2.87476 11.3101,2.91931 C11.1978,3.04669 11.0283,3.1203 10.8496,3.11932 C10.7163,3.12006 10.5874,3.07886 10.4829,3.00269 L9.02148,1.94666 L8.58936,1.63464 L8.58936,10.828 C8.58936,11.1207 8.32471,11.36 8,11.36 C7.67529,11.36 7.41113,11.1207 7.41113,10.8273 L7.41113,1.63403 L6.97852,1.94666 L5.51709,3.00269 C5.41211,3.07935 5.28467,3.11932 5.1499,3.11932 Z M13.1309,5.66534 L15.4111,5.66534 C15.7334,5.66388 15.9966,5.90161 16,6.19733 L16,15.468 C16,15.7614 15.7354,16 15.4111,16 L0.588867,16 C0.264648,16 0,15.7614 0,15.468 L0,6.19733 C0.00341797,5.90161 0.266602,5.66388 0.588867,5.66534 L3.43945,5.66534 C3.76172,5.66388 4.02539,5.90161 4.02832,6.19733 C4.02832,6.49066 3.76367,6.73004 3.43945,6.73004 L1.17822,6.73004 L1.17822,14.9354 L14.8218,14.9354 L14.8218,6.72937 L13.1309,6.72937 C12.8057,6.72937 12.542,6.49066 12.542,6.19733 C12.5449,5.90161 12.8081,5.66388 13.1309,5.66534 Z" id="a"></path>
        </g>
    </g>
</svg>
